X: 130482
T: Mrs.Flanagan's
S: "Treoir"
Z: B.Black
M: 4/4
L: 1/8
R: reel
K: D
FA A2 d2 ef | g2 fg edBA | FA A2 defe | dBAF E2 D2 |
FA A2 df f2 | gefd edBA | FA A2 defe | dBAF E2 D2 ||
fgaf d2 ef | g2 fg edBd | fgaf d2 ef | gefd e2 d2 |
fgaf d2 ef | g2 fg edBA | FA A2 defe | dBAF E2 D2 ||
